lib/flags/l/446.svg

<svg xmlns="http://www.w3.org/2000/svg" fill="none" viewBox="0 0 32 24"><mask id="446_svg__a" width="32" height="24" x="0" y="0" mask-type="alpha" maskUnits="userSpaceOnUse"><path fill="#fff" d="M0 0H32V24H0z"/></mask><g mask="url(#446_svg__a)"><path fill="#1C9975" fill-rule="evenodd" d="M0 0V24H32V0H0Z" clip-rule="evenodd"/><mask id="446_svg__b" width="32" height="24" x="0" y="0" mask-type="alpha" maskUnits="userSpaceOnUse"><path fill="#fff" fill-rule="evenodd" d="M0 0V24H32V0H0Z" clip-rule="evenodd"/></mask><g mask="url(#446_svg__b)"><path fill="#FECA00" fill-rule="evenodd" d="M16.0216 6.8537 14.3879 7.83998 14.7605 5.91536 13.4 4.47497 15.2422 4.39709 16.0216 2.59998 16.801 4.39709H18.64L17.2827 5.91536 17.6913 7.83998 16.0216 6.8537zM11.3826 7.58439 10.3724 8.19422 10.6028 7.00419 9.7616 6.11357 10.9007 6.06542 11.3826 4.95422 11.8645 6.06542H13.0016L12.1623 7.00419 12.415 8.19422 11.3826 7.58439zM20.5809 7.58439 19.5708 8.19422 19.8012 7.00419 18.96 6.11357 20.099 6.06542 20.5809 4.95422 21.0628 6.06542H22.2L21.3607 7.00419 21.6134 8.19422 20.5809 7.58439zM8.76648 9.61063 7.95585 10.1 8.14075 9.14504 7.4657 8.43034 8.37976 8.3917 8.76648 7.5 9.1532 8.3917H10.0657L9.3922 9.14504 9.59496 10.1 8.76648 9.61063zM23.5608 9.61063 22.7502 10.1 22.9351 9.14504 22.26 8.43034 23.1741 8.3917 23.5608 7.5 23.9475 8.3917H24.86L24.1865 9.14504 24.3893 10.1 23.5608 9.61063z" clip-rule="evenodd"/><mask id="446_svg__c" width="16" height="16" x="8" y="6" mask-type="alpha" maskUnits="userSpaceOnUse"><path fill="#fff" fill-rule="evenodd" d="M16 22C20.4183 22 24 18.4183 24 14C24 9.58172 20.4183 6 16 6C11.5817 6 8 9.58172 8 14C8 18.4183 11.5817 22 16 22Z" clip-rule="evenodd"/></mask><g fill="#F7FCFF" mask="url(#446_svg__c)"><path fill-rule="evenodd" d="M12.6809 21.0638H19.3192V22.1362H12.6809V21.0638zM9.9574 19.46H22.7234V20.4429H9.9574V19.46z" clip-rule="evenodd"/><path d="M12.6203 19.0206H8.71558V18.0206L12.6133 18.0206C13.994 18.0012 15.0029 17.6069 15.676 16.8482L16.0115 16.4701L16.3859 16.8096C17.285 17.6248 18.183 18.0206 19.0915 18.0206H23.3957V19.0206H19.0915C18.0478 19.0206 17.0402 18.628 16.0767 17.8592C15.2234 18.6156 14.0648 19.0003 12.6203 19.0206Z"/></g><path fill="#F7FCFF" fill-rule="evenodd" d="M16.0347 7.60779C16.0347 7.60779 14.3259 9.29579 14.3259 11.6124C14.3259 12.1081 14.4042 12.5765 14.5272 13.0064C13.9767 11.7863 13.9385 10.4632 14.4136 9.02003L13.7669 8.80713C13.2836 10.2753 13.2815 11.6556 13.7614 12.9348C12.7687 12.3368 11.6267 11.9349 10.4545 11.8054L10.3797 12.4821C11.4041 12.5953 12.404 12.9369 13.2819 13.4426C13.0651 13.3552 12.8379 13.2792 12.6008 13.2186C10.4378 12.6666 8.3158 13.4494 8.3158 13.4494C8.3158 13.4494 9.53989 16.1956 11.9108 16.6006C12.029 16.6208 12.1458 16.6365 12.2612 16.6481L12.2433 16.6482C11.1129 16.6482 10.0617 16.186 9.07729 15.247L8.60735 15.7397C9.71302 16.7944 10.9291 17.329 12.2433 17.329C13.5285 17.329 14.7222 16.8176 15.8128 15.8086C15.9878 15.7029 16.0902 15.6273 16.1065 15.615L16.1495 15.6515C16.127 15.6901 16.1157 15.7112 16.1157 15.7112C16.1157 15.7112 16.2232 15.7763 16.4171 15.868C17.494 16.7027 18.8414 17.329 19.9075 17.329C21.2216 17.329 22.4377 16.7944 23.5434 15.7397L23.0735 15.247C22.0891 16.186 21.0379 16.6482 19.9075 16.6482C19.4945 16.6482 19.0898 16.5818 18.6929 16.4483C19.2487 16.4782 19.8611 16.4281 20.4949 16.2344C22.8303 15.5203 23.8039 13.3607 23.8039 13.3607C23.8039 13.3607 22.5612 12.6902 20.9829 12.6827C21.3365 12.5915 21.7056 12.5246 22.0904 12.4821L22.0156 11.8054C20.5354 11.969 19.2547 12.4686 18.1804 13.3023C18.8085 11.9211 18.8572 10.4169 18.3272 8.80713L17.6805 9.02003C18.1135 10.3355 18.1202 11.5511 17.7011 12.68C17.7729 12.3462 17.8153 11.9894 17.8153 11.6124C17.8153 9.17022 16.0347 7.60779 16.0347 7.60779ZM16.7864 14.7554L16.761 14.7919L16.792 14.7551L16.7864 14.7554ZM15.1348 14.596L15.2017 14.5344C15.2626 14.6355 15.3233 14.7307 15.3826 14.8195C15.3057 14.747 15.223 14.6721 15.1348 14.596Z" clip-rule="evenodd"/></g></g></svg>

<svg xmlns="http://www.w3.org/2000/svg" fill="none" viewBox="0 0 32 24"><mask id="446_svg__a" width="32" height="24" x="0" y="0" maskUnits="userSpaceOnUse"><path fill="#fff" d="M0 0h32v24H0z"/></mask><g mask="url(#446_svg__a)"><path fill="#1C9975" fill-rule="evenodd" d="M0 0v24h32V0H0z" clip-rule="evenodd"/><mask id="446_svg__b" width="32" height="24" x="0" y="0" maskUnits="userSpaceOnUse"><path fill="#fff" fill-rule="evenodd" d="M0 0v24h32V0H0z" clip-rule="evenodd"/></mask><g mask="url(#446_svg__b)"><path fill="#FECA00" fill-rule="evenodd" d="M16.022 6.854l-1.634.986.373-1.925-1.361-1.44 1.842-.078.78-1.797.779 1.797h1.839l-1.357 1.518.408 1.925-1.67-.986zm-4.639.73l-1.01.61.23-1.19-.841-.89 1.139-.049.482-1.11.482 1.11h1.137l-.84.94.253 1.19-1.032-.61zm9.197 0l-1.01.61.231-1.19-.841-.89 1.139-.049.482-1.11.482 1.11H22.2l-.84.94.253 1.19-1.032-.61zM8.766 9.61l-.81.49.185-.955-.675-.715.914-.038.386-.892.387.892h.913l-.674.753.203.955-.829-.49zm14.794 0l-.81.49.185-.955-.675-.715.914-.038.387-.892.387.892h.912l-.674.753.203.955-.828-.49z" clip-rule="evenodd"/><mask id="446_svg__c" width="16" height="16" x="8" y="6" maskUnits="userSpaceOnUse"><path fill="#fff" fill-rule="evenodd" d="M16 22a8 8 0 100-16 8 8 0 000 16z" clip-rule="evenodd"/></mask><g fill="#F7FCFF" mask="url(#446_svg__c)"><path fill-rule="evenodd" d="M12.68 21.064h6.64v1.072h-6.64v-1.072zM9.957 19.46h12.766v.983H9.957v-.983z" clip-rule="evenodd"/><path d="M12.62 19.02H8.716v-1h3.897c1.381-.019 2.39-.413 3.063-1.172l.336-.378.374.34c.899.815 1.797 1.21 2.706 1.21h4.304v1H19.09c-1.043 0-2.05-.392-3.014-1.16-.854.756-2.012 1.14-3.457 1.16z"/></g><path fill="#F7FCFF" fill-rule="evenodd" d="M16.035 7.608s-1.71 1.688-1.71 4.004c0 .496.08.964.202 1.394-.55-1.22-.588-2.543-.113-3.986l-.647-.213c-.483 1.468-.486 2.849-.006 4.128a8.212 8.212 0 00-3.306-1.13l-.075.677a7.52 7.52 0 012.902.96 5.394 5.394 0 00-.681-.223c-2.163-.552-4.285.23-4.285.23s1.224 2.747 3.595 3.152c.118.02.235.036.35.047h-.018c-1.13 0-2.181-.462-3.166-1.401l-.47.493c1.106 1.054 2.322 1.589 3.636 1.589 1.285 0 2.48-.511 3.57-1.52.175-.106.277-.182.293-.194l.043.037-.033.06s.107.064.301.156c1.077.835 2.424 1.461 3.49 1.461 1.315 0 2.53-.535 3.636-1.59l-.47-.492c-.984.939-2.035 1.401-3.166 1.401-.413 0-.817-.066-1.214-.2.556.03 1.168-.02 1.802-.214 2.335-.714 3.309-2.873 3.309-2.873s-1.243-.67-2.821-.678a7.904 7.904 0 011.107-.2l-.074-.678c-1.48.164-2.761.664-3.836 1.497.628-1.38.677-2.885.147-4.495l-.647.213c.433 1.316.44 2.531.021 3.66.072-.334.114-.69.114-1.068 0-2.442-1.78-4.004-1.78-4.004zm.751 7.147l-.025.037.031-.037h-.006zm-1.651-.159l.067-.062c.06.101.121.197.18.285a7.58 7.58 0 00-.247-.223z" clip-rule="evenodd"/></g></g></svg>
